X:1
T:Title
%%score { ( 1 3 ) | ( 2 4 ) }
L:1/8
Q:1/4=100
M:4/4
K:G
V:1 treble nm="Grand Piano"
V:3 treble 
V:2 bass 
V:4 bass 
V:1
 [B,D]3 [CE] [B,D]2 [B,G]2 | [DB]3 [Ec] [DB]2 [B,G]2 | [DG]3 [DG] A2 B2 | c2 B2 A4 | B3 c d2 B2 | %5
w: Wm.~J.~Kirkpatrick * * *|||||
 B2 A2 G2 E2 | [B,D]3 [CE] [B,D]2 [DG]2 |[M:7/8] z2 A2 z z2 |[M:1/4] B>c |[M:4/4] [Bd]4 z4 | %10
w: |||||
 [Ac]4 z4 | [Fc][Fc][Fc][Fc] [Fc][Fc] [Fd]>[Fc] | B6 B>c | [Bd]4 z4 |[M:9/8] .[EG]6 z3 | %15
w: |||||
[M:4/4] BBGG AG A>B |[M:7/8] [G,G]2- [G,-EG-]>[G,-EG-] [G,DG]3 |] %17
w: ||
V:2
 [G,,G,]3 [G,,G,] [G,,G,]2 [G,,D,]2 | [G,,G,]3 [G,,G,] [G,,G,]2 [G,,G,]2 | %2
 [B,,G,]3 [B,,G,] [D,F,D]2 [G,D]2 | [F,A,D]2 [G,D]2 [D,F,C]4 | [G,D]3 [G,A,D] [G,B,D]2 [G,D]2 | %5
 [D,G,D]2 [D,F,C]2 [E,G,B,]2 [C,G,C]2 | [G,,G,]3 [G,,G,] [G,,G,]2 [B,,G,]2 | %7
[M:7/8] [D,G,D]2 [D,D]2 G,,3 |[M:1/4][K:treble] G>A |[M:4/4] G,G,G,G, [G,DG]2 F>G | %10
 D,D,D,D, [D,D]2 [D,D]>[D,D] | [D,A,][D,A,][D,A,][D,A,] [D,A,][D,A,] [D,A,]>[D,D] | [G,DG]6 G>A | %13
 G,G,G,G, [G,DG]2 G>F |[M:9/8][K:bass] C,C,C, C, [C,G,C]2- [C,G,C][C,G,]>[C,G,] | %15
[M:4/4] [D,G,D][D,G,D][D,B,D][D,B,D] [D,CD][D,B,D] [D,CD]>[D,D] |[M:7/8] z2 C>C B,3 |] %17
V:3
 x8 | x8 | x8 | x8 | x8 | x8 | x8 |[M:7/8] B2 z C [G,B,DG]3 |[M:1/4] x2 |[M:4/4] DDDD B2 A>B | %10
 DDDD [FA]2 [FA]>[GB] | x8 | x8 | DDDD B2 B>A |[M:9/8] CCC C E2- E[Ec]>[Ec] |[M:4/4] x8 | %16
[M:7/8] [B,D]2 z z z z2 |] %17
V:4
 x8 | x8 | x8 | x8 | x8 | x8 | x8 |[M:7/8] z2 F, z z z2 |[M:1/4][K:treble] x2 |[M:4/4] x8 | x8 | %11
 x8 | x8 | x8 |[M:9/8][K:bass] x9 |[M:4/4] x8 |[M:7/8] G,,-G,,-G,,- G,,- G,,3 |] %17

